assets/svgs/tg16.svg

<?xml version="1.0" encoding="UTF-8" standalone="no"?>
<svg
   xmlns:dc="http://purl.org/dc/elements/1.1/"
   xmlns:cc="http://creativecommons.org/ns#"
   xmlns:rdf="http://www.w3.org/1999/02/22-rdf-syntax-ns#"
   xmlns:svg="http://www.w3.org/2000/svg"
   xmlns="http://www.w3.org/2000/svg"
   xmlns:sodipodi="http://sodipodi.sourceforge.net/DTD/sodipodi-0.dtd"
   xmlns:inkscape="http://www.inkscape.org/namespaces/inkscape"
   version="1.1"
   id="svg14"
   sodipodi:docname="tg16.svg"
   width="264"
   height="57"
   inkscape:version="0.92.5 (2060ec1f9f, 2020-04-08)">
  <metadata
     id="metadata20">
    <rdf:RDF>
      <cc:Work
         rdf:about="">
        <dc:format>image/svg+xml</dc:format>
        <dc:type
           rdf:resource="http://purl.org/dc/dcmitype/StillImage" />
      </cc:Work>
    </rdf:RDF>
  </metadata>
  <defs
     id="defs18" />
  <sodipodi:namedview
     pagecolor="#ffffff"
     bordercolor="#666666"
     borderopacity="1"
     objecttolerance="10"
     gridtolerance="10"
     guidetolerance="10"
     inkscape:pageopacity="0"
     inkscape:pageshadow="2"
     inkscape:window-width="532"
     inkscape:window-height="460"
     id="namedview16"
     showgrid="false"
     inkscape:zoom="2.36"
     inkscape:cx="50"
     inkscape:cy="7"
     inkscape:window-x="72"
     inkscape:window-y="27"
     inkscape:window-maximized="0"
     inkscape:current-layer="svg14" />
  <polygon
     points="13.076,3.867 9.249,3.867 9.249,56.363 4.624,56.363 4.624,3.867 0,3.867 0,0 13.076,0 "
     id="polygon5"
     style="fill:#ffffff;fill-opacity:1" />
  <path
     d="m 24.922,52.521 h 5.104 V 15.742 h 4.464 v 36.779 c 0,2.381 -2.151,4.066 -4.358,4.066 h -5.21 c -2.332,0 -4.412,-1.906 -4.412,-4.114 V 15.742 h 4.412 z"
     id="path7"
     style="fill:#ffffff;fill-opacity:1"
     inkscape:connector-curvature="0" />
  <path
     d="m 120.923,24.725 h 6.817 v 31.9 h -9.608 c -2.054,0 -4.584,-1.582 -4.584,-3.979 V 4.426 c 0,-2.026 2.112,-4.183 4.484,-4.183 h 5.243 c 2.326,0 4.435,2.138 4.435,4.137 v 11.423 h -4.595 V 4.539 h -5.222 v 48.143 h 5.342 V 28.629 h -2.312 z"
     id="path9"
     style="fill:#ffffff;fill-opacity:1"
     inkscape:connector-curvature="0" />
  <path
     d="m 186.851,37.047 v 19.335 h -4.304 v -37.03 c 0,-1.673 1.655,-3.496 3.747,-3.496 h 7.097 v 3.569 h -6.54 v 13.682 h 5.385 v 3.958 z"
     id="path11"
     style="fill:#ffffff;fill-opacity:1"
     inkscape:connector-curvature="0" />
  <path
     d="m 202.121,15.866 h 4.518 v 14.749 l 2.552,2.578 2.497,-2.506 V 15.866 h 4.465 v 14.033 c 0,1.713 -4.41,6.228 -4.41,6.228 0,0 4.464,4.512 4.464,6.34 v 13.997 h -4.2 V 41.891 l -2.71,-2.755 -2.712,2.719 v 14.609 h -4.464 V 42.5 c 0,-1.717 4.728,-6.409 4.728,-6.409 0,0 -4.728,-4.463 -4.728,-6.262 z"
     id="path13"
     style="fill:#ffffff;fill-opacity:1"
     inkscape:connector-curvature="0" />
  <path
     d="m 53.839,37.139 c 1.514,0 3.528,-1.82 3.528,-4.256 v -13.31 c 0,-1.914 -2.173,-3.697 -4.645,-3.697 H 43.553 V 56.545 H 47.78 V 37.437 h 1.595 l 4.703,19.036 h 4.146 z M 53.002,33.161 H 47.938 V 19.816 h 5.064 z"
     id="path15"
     style="fill:#ffffff;fill-opacity:1"
     inkscape:connector-curvature="0" />
  <path
     d="m 147.363,37.033 c 1.516,0 3.531,-1.823 3.531,-4.258 V 19.466 c 0,-1.915 -2.175,-3.701 -4.645,-3.701 h -9.168 v 40.674 h 4.222 v -19.11 h 1.596 l 4.706,19.034 h 4.145 z m -0.897,-4.023 h -5.06 V 19.665 h 5.06 z"
     id="path17"
     style="fill:#ffffff;fill-opacity:1"
     inkscape:connector-curvature="0" />
  <path
     d="m 79.96,38.097 c -0.018,-1.823 -1.911,-2.975 -1.911,-2.975 0,0 1.911,-1.244 1.911,-2.974 V 19.732 c 0,-2.343 -2.052,-3.867 -4.144,-3.867 h -9.648 v 40.599 h 9.648 c 1.953,0 4.144,-1.226 4.144,-3.866 0,0 0.023,-12.681 0,-14.501 z M 75.616,52.486 H 70.554 V 37.354 h 5.062 z m 0,-19.334 H 70.554 V 19.807 h 5.062 z"
     id="path19"
     style="fill:#ffffff;fill-opacity:1"
     inkscape:connector-curvature="0" />
  <path
     d="m 98.439,15.565 h -2.552 -2.472 c -2.532,0 -4.374,2.175 -4.374,3.829 v 32.973 c 0,2.131 2.361,4.064 4.354,4.064 h 5.462 c 2.134,0 4.265,-2.213 4.265,-3.979 V 19.283 c 0,-1.486 -2.013,-3.718 -4.683,-3.718 z m 0.158,36.675 h -4.89 V 19.581 h 4.89 z"
     id="path21"
     style="fill:#ffffff;fill-opacity:1"
     inkscape:connector-curvature="0" />
  <path
     d="m 169.36,15.856 h -5.578 c -2.514,0 -3.988,2.081 -3.988,3.717 v 36.809 h 4.225 V 37.047 h 5.341 v 19.335 h 4.227 V 19.796 c -0.002,-2.428 -1.673,-3.94 -4.227,-3.94 z m -0.121,17.177 h -5.06 V 19.946 h 5.06 z"
     id="path23"
     style="fill:#ffffff;fill-opacity:1"
     inkscape:connector-curvature="0" />
  <rect
     x="241.63699"
     y="37.416"
     width="13.083"
     height="4.9050002"
     id="rect29"
     style="fill:#ffffff;fill-opacity:1" />
  <path
     d="m 243.251,15.292 c -11.459,0 -20.745,9.336 -20.745,20.853 0,11.518 9.286,20.855 20.745,20.855 C 254.709,57 264,47.663 264,36.145 264,24.628 254.71,15.292 243.251,15.292 Z m -7.061,29.421 h -6.579 v -2.316 h 2.122 V 30.159 h -2.082 v -2.392 h 4.46 v 14.591 h 2.079 z m 20.797,-12.501 h -2.115 v -2.129 h -13.35 v 5.092 h 14.257 l 1.208,1.218 v 6.728 l -1.512,1.519 H 240.88 l -1.513,-1.519 V 29.249 l 1.402,-1.408 h 14.935 l 1.283,1.293 z"
     id="path31"
     style="fill:#ffffff;fill-opacity:1"
     inkscape:connector-curvature="0" />
</svg>

<?xml version="1.0" encoding="utf-8"?>
<svg version="1.1" viewBox="0 0 264 57" xmlns="http://www.w3.org/2000/svg">
  <polygon points="0 0 13.076 0 13.076 3.867 9.249 3.867 9.249 56.363 4.624 56.363 4.624 3.867 0 3.867" id="polygon5" style="fill:#ffffff;fill-opacity:1"/>
  <path d="M 24.922 52.521 L 30.026 52.521 L 30.026 15.742 L 34.49 15.742 L 34.49 52.521 C 34.49 54.902 32.339 56.587 30.132 56.587 L 24.922 56.587 C 22.59 56.587 20.51 54.681 20.51 52.473 L 20.51 15.742 L 24.922 15.742 L 24.922 52.521 Z" id="path7" style="fill:#ffffff;fill-opacity:1"/>
  <path d="M 120.923 24.725 L 127.74 24.725 L 127.74 56.625 L 118.132 56.625 C 116.078 56.625 113.548 55.043 113.548 52.646 L 113.548 4.426 C 113.548 2.4 115.66 0.243 118.032 0.243 L 123.275 0.243 C 125.601 0.243 127.71 2.381 127.71 4.38 L 127.71 15.803 L 123.115 15.803 L 123.115 4.539 L 117.893 4.539 L 117.893 52.682 L 123.235 52.682 L 123.235 28.629 L 120.923 28.629 L 120.923 24.725 Z" id="path9" style="fill:#ffffff;fill-opacity:1"/>
  <path d="M 186.851 37.047 L 186.851 56.382 L 182.547 56.382 L 182.547 19.352 C 182.547 17.679 184.202 15.856 186.294 15.856 L 193.391 15.856 L 193.391 19.425 L 186.851 19.425 L 186.851 33.107 L 192.236 33.107 L 192.236 37.065 L 186.851 37.047 Z" id="path11" style="fill:#ffffff;fill-opacity:1"/>
  <path d="M 202.121 15.866 L 206.639 15.866 L 206.639 30.615 L 209.191 33.193 L 211.688 30.687 L 211.688 15.866 L 216.153 15.866 L 216.153 29.899 C 216.153 31.612 211.743 36.127 211.743 36.127 C 211.743 36.127 216.207 40.639 216.207 42.467 L 216.207 56.464 L 212.007 56.464 L 212.007 41.891 L 209.297 39.136 L 206.585 41.855 L 206.585 56.464 L 202.121 56.464 L 202.121 42.5 C 202.121 40.783 206.849 36.091 206.849 36.091 C 206.849 36.091 202.121 31.628 202.121 29.829 L 202.121 15.866 Z" id="path13" style="fill:#ffffff;fill-opacity:1"/>
  <path d="M 53.839 37.139 C 55.353 37.139 57.367 35.319 57.367 32.883 L 57.367 19.573 C 57.367 17.659 55.194 15.876 52.722 15.876 L 43.553 15.876 L 43.553 56.545 L 47.78 56.545 L 47.78 37.437 L 49.375 37.437 L 54.078 56.473 L 58.224 56.473 L 53.839 37.139 Z M 53.002 33.161 L 47.938 33.161 L 47.938 19.816 L 53.002 19.816 L 53.002 33.161 Z" id="path15" style="fill:#ffffff;fill-opacity:1"/>
  <path d="M 147.363 37.033 C 148.879 37.033 150.894 35.21 150.894 32.775 L 150.894 19.466 C 150.894 17.551 148.719 15.765 146.249 15.765 L 137.081 15.765 L 137.081 56.439 L 141.303 56.439 L 141.303 37.329 L 142.899 37.329 L 147.605 56.363 L 151.75 56.363 L 147.363 37.033 Z M 146.466 33.01 L 141.406 33.01 L 141.406 19.665 L 146.466 19.665 L 146.466 33.01 Z" id="path17" style="fill:#ffffff;fill-opacity:1"/>
  <path d="M 79.96 38.097 C 79.942 36.274 78.049 35.122 78.049 35.122 C 78.049 35.122 79.96 33.878 79.96 32.148 L 79.96 19.732 C 79.96 17.389 77.908 15.865 75.816 15.865 L 66.168 15.865 L 66.168 56.464 L 75.816 56.464 C 77.769 56.464 79.96 55.238 79.96 52.598 C 79.96 52.598 79.983 39.917 79.96 38.097 Z M 75.616 52.486 L 70.554 52.486 L 70.554 37.354 L 75.616 37.354 L 75.616 52.486 Z M 75.616 33.152 L 70.554 33.152 L 70.554 19.807 L 75.616 19.807 L 75.616 33.152 Z" id="path19" style="fill:#ffffff;fill-opacity:1"/>
  <path d="M 98.439 15.565 L 95.887 15.565 L 93.415 15.565 C 90.883 15.565 89.041 17.74 89.041 19.394 L 89.041 52.367 C 89.041 54.498 91.402 56.431 93.395 56.431 L 98.857 56.431 C 100.991 56.431 103.122 54.218 103.122 52.452 L 103.122 19.283 C 103.122 17.797 101.109 15.565 98.439 15.565 Z M 98.597 52.24 L 93.707 52.24 L 93.707 19.581 L 98.597 19.581 L 98.597 52.24 Z" id="path21" style="fill:#ffffff;fill-opacity:1"/>
  <path d="M 169.36 15.856 L 163.782 15.856 C 161.268 15.856 159.794 17.937 159.794 19.573 L 159.794 56.382 L 164.019 56.382 L 164.019 37.047 L 169.36 37.047 L 169.36 56.382 L 173.587 56.382 L 173.587 19.796 C 173.585 17.368 171.914 15.856 169.36 15.856 Z M 169.239 33.033 L 164.179 33.033 L 164.179 19.946 L 169.239 19.946 L 169.239 33.033 Z" id="path23" style="fill:#ffffff;fill-opacity:1"/>
  <rect x="241.637" y="37.416" width="13.083" height="4.905" id="rect29" style="fill:#ffffff;fill-opacity:1"/>
  <path d="M 243.251 15.292 C 231.792 15.292 222.506 24.628 222.506 36.145 C 222.506 47.663 231.792 57 243.251 57 C 254.709 57 264 47.663 264 36.145 C 264 24.628 254.71 15.292 243.251 15.292 Z M 236.19 44.713 L 229.611 44.713 L 229.611 42.397 L 231.733 42.397 L 231.733 30.159 L 229.651 30.159 L 229.651 27.767 L 234.111 27.767 L 234.111 42.358 L 236.19 42.358 L 236.19 44.713 L 236.19 44.713 Z M 256.987 32.212 L 254.872 32.212 L 254.872 30.083 L 241.522 30.083 L 241.522 35.175 L 255.779 35.175 L 256.987 36.393 L 256.987 43.121 L 255.475 44.64 L 240.88 44.64 L 239.367 43.121 L 239.367 29.249 L 240.769 27.841 L 255.704 27.841 L 256.987 29.134 L 256.987 32.212 Z" id="path31" style="fill:#ffffff;fill-opacity:1"/>
</svg>
